X:1
T:Zelek, LM
T:Zelek, LM
T:Harmonia Sacra, 1867 
T:Public Domain Courtesy of the Cyber Hymnal™
C:Harmonia Sacra, 1867
Z:Public Domain
Z:Courtesy of the Cyber Hymnal™
%%score ( 1 2 ) ( 3 4 )
L:1/8
Q:1/4=130
M:3/2
K:C
V:1 treble 
V:2 treble 
V:3 bass 
V:4 bass 
V:1
 G4 | c2 G2 A2 G2 E2 C2 | G8 [Ec]4 | [Ec]2 [DB]2 [DB]4 [Fd]4 | [Fd]2 [Ec]2 [Ec]4 G4 | %5
 c2 G2 A2 G2 [Gc]2 [Ge]2 | [Gd]8 [Fd]4 | [Ec]2 [GB]2 [FA]4 [DG]4 | [CE]2 [DG]2 [EG]4 |] %9
V:2
 G4 | c2 G2 A2 G2 E2 C2 | G8 x4 | x12 | x8 G4 | c2 G2 A2 G2 x4 | x12 | x12 | x8 |] %9
V:3
 G,4 | C2 G,2 A,2 G,2 E,2 C,2 | G,8 G,4 | G,2 G,2 G,4 [G,B,]4 | [C,B,]2 [C,C]2 [C,C]4 G,4 | %5
 C2 G,2 A,2 G,2 [E,G,]2 [C,C]2 | [G,B,]8 [G,B,]4 | [A,C]2 [E,C]2 [F,C]4 [G,B,]4 | %8
 [A,C]2 [G,B,]2 [C,C]4 |] %9
V:4
 G,4 | C2 G,2 A,2 G,2 E,2 C,2 | G,8 C,2 E,2 | G,2 G,2 G,4 x4 | x8 G,4 | C2 G,2 A,2 G,2 x4 | x12 | %7
 x12 | x8 |] %9

